X: 4
T: Kathleen Hehir's
R: slide
M: 12/8
L: 1/8
K: Dmaj
A | d2d ded c2E EFG | ABA A2G F2D DFA | d2d ded c2E EFG | ABA GFE D3 D2 :|
e | f2d d2c d2f agf | e2A A2c e2f gfe | f2d d2c d2f agf | e2A ABc d3 d2 :|


Tune 157	Setting 12778

